brandFactory_export/1.Light/Editar2_1Light.svg

<?xml version="1.0" encoding="UTF-8"?>
<svg width="24px" height="24px" viewBox="0 0 24 24" version="1.1" xmlns="http://www.w3.org/2000/svg" xmlns:xlink="http://www.w3.org/1999/xlink">
    <title>1.Light/Editar2_1Light</title>
    <g id="Symbols" stroke="none" stroke-width="1" fill="none" fill-rule="evenodd">
        <g id="1.Light/Editar2_1Light" fill="#5CB615" fill-rule="nonzero">
            <path d="M22,22.2689076 C22.3697479,22.2689076 22.6655462,22.5781513 22.6655462,22.9647059 C22.6655462,23.3478992 22.3663866,23.6605042 22,23.6605042 L2.66554622,23.6605042 C2.29579832,23.6605042 2,23.3512605 2,22.9647059 C2,22.5815126 2.29915966,22.2689076 2.66554622,22.2689076 L22,22.2689076 Z M3.81176471,20.7529412 C3.34789916,20.7529412 2.90756303,20.5546218 2.58487395,20.2117647 C2.13109244,19.7176471 1.97310924,19.0016807 2.17142857,18.3495798 L4,12.5445378 C4.10756303,12.2319328 4.28907563,11.9529412 4.53445378,11.7378151 C9.56302521,6.98823529 14.9647059,1.82184874 15.3378151,1.43193277 C16.087395,0.568067227 17.1428571,0.0605042017 18.2588235,0.0302521008 C19.4252101,0.0403361345 20.5344538,0.541176471 21.3378151,1.41848739 C22.1647059,2.29579832 22.6420168,3.46554622 22.6722689,4.69579832 C22.6521008,5.90252101 22.1747899,7.05210084 21.3378151,7.88907563 C20.6722689,8.63865546 10.507563,18.2621849 10.4033613,18.3596639 C10.2319328,18.5277311 10.0268908,18.6521008 9.80168067,18.7193277 L4.35966387,20.6487395 C4.18151261,20.7260504 3.99663866,20.7563025 3.81176471,20.7529412 Z M3.43865546,18.7697479 C3.38487395,18.9344538 3.42521008,19.1193277 3.54621849,19.2403361 C3.64369748,19.3478992 3.79495798,19.3915966 3.93277311,19.3512605 L9.37478992,17.4890756 C9.42521008,17.4722689 9.46890756,17.4420168 9.5092437,17.405042 C11.189916,15.8084034 19.8184874,7.6 20.389916,6.98823529 C20.9747899,6.38319328 21.3042017,5.55630252 21.2975799,4.69579832 C21.2907563,3.83193277 20.9714286,3.00504202 20.4033613,2.37647059 C19.8453782,1.77815126 19.0823529,1.43865546 18.2823529,1.43193277 C17.502521,1.44537815 16.7630252,1.78487395 16.2285714,2.37647059 C15.7344538,2.91764706 8.22857143,10.0436975 5.38487395,12.7495798 C5.33109244,12.7966387 5.28739496,12.8605042 5.26386555,12.9310924 L3.43865546,18.7697479 Z" id="Editar2_1Light"></path>
        </g>
    </g>
</svg>

<svg width="24" height="24" viewBox="0 0 24 24" xmlns="http://www.w3.org/2000/svg"><path d="M22 22.269c.37 0 .666.31.666.696 0 .383-.3.696-.666.696H2.666c-.37 0-.666-.31-.666-.696 0-.383.3-.696.666-.696H22zM3.812 20.753c-.464 0-.904-.198-1.227-.541a1.934 1.934 0 01-.414-1.862L4 12.545c.108-.313.29-.592.534-.807 5.029-4.75 10.43-9.916 10.804-10.306A4.015 4.015 0 0118.258.03c1.167.01 2.276.511 3.08 1.388a4.956 4.956 0 011.334 3.278 4.623 4.623 0 01-1.334 3.193c-.666.75-10.83 10.373-10.935 10.47a1.456 1.456 0 01-.601.36L4.36 20.65a1.303 1.303 0 01-.548.104zm-.373-1.983a.465.465 0 00.107.47.38.38 0 00.387.111l5.442-1.862a.377.377 0 00.134-.084C11.19 15.808 19.82 7.6 20.39 6.988a3.267 3.267 0 00.909-2.292 3.5 3.5 0 00-.895-2.32 2.932 2.932 0 00-2.12-.944 2.83 2.83 0 00-2.054.944c-.495.542-8 7.668-10.844 10.374a.422.422 0 00-.121.181L3.439 18.77z" fill="#5CB615" fill-rule="nonzero"/></svg>
